X:28
M:3/4
L:1/4
K:Eb
B G B | A2 G | F3 | E2 B | (c3/2 d/) e | (d3/2 c/) d | c3 | B G B | A2 G | F3 | E2 B | (c3/2 d/) e | (d3/2 c/) d | c3 | G B E | (D3/2 E/) F | E3 | A c F | (=E3/2 F/) G | F2 F | (G3/2 A/) B |  (=A3/2 B/) c | B2 !sintro!B | (c3/2 d/) e | (d3/2 c/) d | e3 !eintro!|]
